title/left-no_gradient-no_shadow.svg

<?xml version="1.0" encoding="UTF-8" standalone="no"?>
<svg
   xmlns:dc="http://purl.org/dc/elements/1.1/"
   xmlns:cc="http://creativecommons.org/ns#"
   xmlns:rdf="http://www.w3.org/1999/02/22-rdf-syntax-ns#"
   xmlns:svg="http://www.w3.org/2000/svg"
   xmlns="http://www.w3.org/2000/svg"
   xmlns:sodipodi="http://sodipodi.sourceforge.net/DTD/sodipodi-0.dtd"
   xmlns:inkscape="http://www.inkscape.org/namespaces/inkscape"
   viewBox="0 0 30 30"
   version="1.1"
   id="svg36"
   sodipodi:docname="left_nogradient.svg"
   inkscape:version="0.92.2 5c3e80d, 2017-08-06"
   inkscape:export-filename="/home/noah/.local/share/yakuake/kns_skins/breeze_perfect_dark-no_gradient/title/left.png"
   inkscape:export-xdpi="96"
   inkscape:export-ydpi="96">
  <metadata
     id="metadata40">
    <rdf:RDF>
      <cc:Work
         rdf:about="">
        <dc:format>image/svg+xml</dc:format>
        <dc:type
           rdf:resource="http://purl.org/dc/dcmitype/StillImage" />
      </cc:Work>
    </rdf:RDF>
  </metadata>
  <sodipodi:namedview
     pagecolor="#ffffff"
     bordercolor="#666666"
     borderopacity="1"
     objecttolerance="10"
     gridtolerance="10"
     guidetolerance="10"
     inkscape:pageopacity="0"
     inkscape:pageshadow="2"
     inkscape:window-width="1860"
     inkscape:window-height="1051"
     id="namedview38"
     showgrid="false"
     inkscape:zoom="7.8666667"
     inkscape:cx="-32.79661"
     inkscape:cy="11.949153"
     inkscape:window-x="60"
     inkscape:window-y="0"
     inkscape:window-maximized="1"
     inkscape:current-layer="g34" />
  <defs
     id="defs10" />
  <g
     transform="translate(-553.72-583.12)"
     id="g34">
    <g
       color="#000"
       id="g18"
       style="fill:#31363b;fill-opacity:1"
       inkscape:export-xdpi="96"
       inkscape:export-ydpi="96">
      <path
         fill="url(#0)"
         d="m553.72 583.12h10v26h-10z"
         id="path12"
         style="fill:#31363b;fill-opacity:1" />
      <rect
         width="30"
         height="30"
         x="583.12"
         y="-583.72"
         rx="4"
         transform="matrix(0 1-1 0 0 0)"
         fill="url(#1)"
         id="rect14"
         style="fill:#31363b;fill-opacity:1" />
      <path
         fill="url(#3)"
         d="m573.72 583.12h10v30h-10z"
         id="path16"
         style="fill:#31363b;fill-opacity:1" />
    </g>
    <g
       transform="matrix(1.125 0 0 1.125 556.35-573.41)"
       fill="#f2f2f2"
       id="g32">
      <path
         d="m3 3v1 11 1 3h1 2 8 4 1v-15-1h-16m1 1h14v14h-4-8-2v-2-1-11"
         transform="translate(0 1030.36)"
         id="path22" />
      <path
         transform="matrix(.7071.70711.7071-.70711 0 0)"
         d="m740.39-731.9h3.243v1h-3.243z"
         id="path24" />
      <path
         transform="matrix(.7071-.70711.7071.70711 0 0)"
         d="m-734.44 742.92h3.243v1h-3.243z"
         id="path26" />
      <path
         d="m8.794 1042.86l.207-.207.207.207-.207.207z"
         fill-rule="evenodd"
         id="path28" />
      <path
         d="m10 1044.36h4v1h-4z"
         id="path30" />
    </g>
  </g>
</svg>

<?xml version="1.0" encoding="UTF-8" standalone="no"?>
<svg
   xmlns:dc="http://purl.org/dc/elements/1.1/"
   xmlns:cc="http://creativecommons.org/ns#"
   xmlns:rdf="http://www.w3.org/1999/02/22-rdf-syntax-ns#"
   xmlns:svg="http://www.w3.org/2000/svg"
   xmlns="http://www.w3.org/2000/svg"
   xmlns:xlink="http://www.w3.org/1999/xlink"
   xmlns:sodipodi="http://sodipodi.sourceforge.net/DTD/sodipodi-0.dtd"
   xmlns:inkscape="http://www.inkscape.org/namespaces/inkscape"
   viewBox="0 0 60 60"
   version="1.1"
   id="svg36"
   sodipodi:docname="left-no_gradient-no_shadow.svg"
   inkscape:version="0.92.2 5c3e80d, 2017-08-06"
   inkscape:export-filename="/home/noah/.local/share/yakuake/kns_skins/breeze_perfect_dark-no_gradient/title/left.png"
   inkscape:export-xdpi="96"
   inkscape:export-ydpi="96"
   width="60"
   height="60">
  <metadata
     id="metadata40">
    <rdf:RDF>
      <cc:Work
         rdf:about="">
        <dc:format>image/svg+xml</dc:format>
        <dc:type
           rdf:resource="http://purl.org/dc/dcmitype/StillImage" />
        <dc:title></dc:title>
      </cc:Work>
    </rdf:RDF>
  </metadata>
  <sodipodi:namedview
     pagecolor="#ffffff"
     bordercolor="#666666"
     borderopacity="1"
     objecttolerance="10"
     gridtolerance="10"
     guidetolerance="10"
     inkscape:pageopacity="0"
     inkscape:pageshadow="2"
     inkscape:window-width="1860"
     inkscape:window-height="1051"
     id="namedview38"
     showgrid="true"
     inkscape:zoom="11.125147"
     inkscape:cx="29.842619"
     inkscape:cy="28.747585"
     inkscape:window-x="60"
     inkscape:window-y="0"
     inkscape:window-maximized="1"
     inkscape:current-layer="g18-5">
    <inkscape:grid
       type="xygrid"
       id="grid867" />
  </sodipodi:namedview>
  <defs
     id="defs10">
    <linearGradient
       id="linearGradient891">
      <stop
         offset="0"
         style="stop-color:#3b4147;stop-opacity:1"
         id="stop887" />
      <stop
         style="stop-color:#31363b;stop-opacity:1"
         id="stop889"
         offset="1" />
    </linearGradient>
    <linearGradient
       id="linearGradient885">
      <stop
         offset="0"
         style="stop-color:#3b4147;stop-opacity:1"
         id="stop881" />
      <stop
         style="stop-color:#31363b;stop-opacity:1"
         id="stop883"
         offset="1" />
    </linearGradient>
    <linearGradient
       y2="12.167404"
       x2="47.873756"
       y1="36.261272"
       x1="47.873756"
       gradientTransform="matrix(0.41317,0,0,1.24513,558.94,567.97)"
       gradientUnits="userSpaceOnUse"
       id="0-3"
       xlink:href="#linearGradient885" />
    <linearGradient
       id="2">
      <stop
         id="stop3"
         style="stop-color:#3b4147;stop-opacity:1"
         offset="0" />
      <stop
         offset="1"
         id="stop5"
         style="stop-color:#31363b;stop-opacity:1" />
    </linearGradient>
    <linearGradient
       xlink:href="#linearGradient891"
       id="3-5"
       x1="47.889893"
       y1="32.245758"
       x2="47.889893"
       y2="12.167453"
       gradientUnits="userSpaceOnUse"
       gradientTransform="matrix(1.23951,0,0,1.49415,509.36,564.94)" />
    <linearGradient
       y2="12.167453"
       x2="47.873756"
       y1="32.245758"
       x1="47.873756"
       gradientTransform="matrix(0.41317,0,0,1.49415,538.94,564.94)"
       gradientUnits="userSpaceOnUse"
       id="1-3"
       xlink:href="#2" />
  </defs>
  <g
     transform="translate(-553.72,-553.12)"
     id="g34">
    <g
       transform="matrix(-0.99999678,0,0,0.99999678,1137.4382,0.0019508)"
       style="color:#000000"
       id="g18-5">
      <path
         inkscape:connector-curvature="0"
         d="m 573.72,553.11983 h 10 V 608.12 h -10 z"
         id="path12-6"
         style="fill:#31363b;fill-opacity:1;stroke-width:1.48324203" />
      <rect
         width="30"
         height="60.000164"
         x="553.71997"
         y="553.11981"
         rx="4"
         id="rect14-2"
         style="fill:#31363b;fill-opacity:1;stroke-width:1.41421556" />
      <path
         inkscape:connector-curvature="0"
         d="M 523.71989,553.11983 H 563.72 V 613.12 h -40.00011 z"
         id="path16-9"
         style="fill:#31363b;fill-opacity:1;stroke-width:2.82843518" />
    </g>
    <g
       style="fill:#f2f2f2"
       transform="matrix(2.2499978,0,0,2.2499978,558.96999,-1759.9377)"
       id="g32-3">
      <path
         inkscape:connector-curvature="0"
         d="m 3,3 v 1 11 1 3 h 1 2 8 4 1 V 4 3 H 3 M 4,4 H 18 V 18 H 14 6 4 V 16 15 4"
         transform="translate(0,1030.36)"
         id="path22-6" />
      <path
         inkscape:connector-curvature="0"
         transform="matrix(0.7071,0.70711,0.7071,-0.70711,0,0)"
         d="m 740.39,-731.9 h 3.243 v 1 h -3.243 z"
         id="path24-7" />
      <path
         inkscape:connector-curvature="0"
         transform="matrix(0.7071,-0.70711,0.7071,0.70711,0,0)"
         d="m -734.44,742.92 h 3.243 v 1 h -3.243 z"
         id="path26-5" />
      <path
         style="fill-rule:evenodd"
         inkscape:connector-curvature="0"
         d="m 8.794,1042.86 0.207,-0.207 0.207,0.207 -0.207,0.207 z"
         id="path28-3" />
      <path
         inkscape:connector-curvature="0"
         d="m 10,1044.36 h 4 v 1 h -4 z"
         id="path30-5" />
    </g>
  </g>
</svg>
